X:3
T:Trip to Nobodys
C:Colin Cotter
M:6/8
K:D
D2 d E2 F-|F2 d G2 A-|ABd f2 f|efe dBA|D2 d E2 F-|F2 d G2 A-|ABd F2 f|
efe d3 :||:GFG E2 E|GFG E2 E|D2 d E2 F-|F2 d G2 A|GFG E2 E|GFG E2 E|D2 e F2 G|A2 F E2 D :|
